src/xmb/monochrome/menu_osd.svg

<svg xmlns="http://www.w3.org/2000/svg" xml:space="preserve" width="64" height="64"><path d="M15 15c-1.108 0-2 .892-2 2v22c0 1.108.892 2 2 2h34c1.108 0 2-.892 2-2V17c0-1.108-.892-2-2-2zm5 2h24c.554 0 1 .446 1 1l2 2-3 2 3 2-3 2 3 2-3 2 3 2-3 2 3 2-2 2c-.392.392-.446 1-1 1H20c-.554 0-1-.446-1-1h-3v-1h2l-1-1 3-2-3-2 3-2-3-2 3-2-3-2 3-2-3-2 2-2c.392-.392.446-1 1-1" style="fill:#fff;fill-opacity:1;stroke:none"/><rect width="16" height="1" x="24" y="44" ry=".5" style="color:#000;clip-rule:nonzero;display:inline;overflow:visible;visibility:visible;opacity:1;isolation:auto;mix-blend-mode:normal;color-interpolation:sRGB;color-interpolation-filters:linearRGB;solid-color:#000;solid-opacity:1;fill:#fff;fill-opacity:1;fill-rule:nonzero;stroke:#fff;stroke-width:2;stroke-linecap:butt;stroke-linejoin:miter;stroke-miterlimit:4;stroke-dasharray:none;stroke-dashoffset:0;stroke-opacity:1;color-rendering:auto;image-rendering:auto;shape-rendering:auto;text-rendering:auto"/><rect width="2" height="2" x="31" y="41" ry="0" style="color:#000;clip-rule:nonzero;display:inline;overflow:visible;visibility:visible;opacity:1;isolation:auto;mix-blend-mode:normal;color-interpolation:sRGB;color-interpolation-filters:linearRGB;solid-color:#000;solid-opacity:1;fill:#fff;fill-opacity:1;fill-rule:nonzero;stroke:#fff;stroke-width:2;stroke-linecap:butt;stroke-linejoin:miter;stroke-miterlimit:4;stroke-dasharray:none;stroke-dashoffset:0;stroke-opacity:1;color-rendering:auto;image-rendering:auto;shape-rendering:auto;text-rendering:auto"/><path d="M21 31h6v2h-6z" style="opacity:.98999999;vector-effect:none;fill:#fff;fill-opacity:1;stroke:none;stroke-width:2;stroke-linecap:butt;stroke-linejoin:miter;stroke-miterlimit:4;stroke-dasharray:none;stroke-dashoffset:0;stroke-opacity:1"/><path d="M29-25h6v2h-6z" style="opacity:.98999999;vector-effect:none;fill:#fff;fill-opacity:1;stroke:none;stroke-width:2;stroke-linecap:butt;stroke-linejoin:miter;stroke-miterlimit:4;stroke-dasharray:none;stroke-dashoffset:0;stroke-opacity:1" transform="rotate(90)"/><path d="M29 34h2v1h-2zm4 0h2v1h-2z" style="opacity:.98999999;vector-effect:none;fill:#fff;fill-opacity:1;stroke:none;stroke-width:2;stroke-linecap:butt;stroke-linejoin:miter;stroke-miterlimit:4;stroke-dasharray:none;stroke-dashoffset:0;stroke-opacity:1"/><g style="fill:#fff" transform="translate(0 -3)"><circle cx="40" cy="37" r="1" style="opacity:.98999999;vector-effect:none;fill:#fff;fill-opacity:1;stroke:none;stroke-width:2;stroke-linecap:butt;stroke-linejoin:miter;stroke-miterlimit:4;stroke-dasharray:none;stroke-dashoffset:0;stroke-opacity:1"/><circle cx="40" cy="33" r="1" style="opacity:.98999999;vector-effect:none;fill:#fff;fill-opacity:1;stroke:none;stroke-width:2;stroke-linecap:butt;stroke-linejoin:miter;stroke-miterlimit:4;stroke-dasharray:none;stroke-dashoffset:0;stroke-opacity:1"/></g><g style="fill:#fff" transform="rotate(90 41.5 33.5)"><circle cx="40" cy="37" r="1" style="opacity:.98999999;vector-effect:none;fill:#fff;fill-opacity:1;stroke:none;stroke-width:2;stroke-linecap:butt;stroke-linejoin:miter;stroke-miterlimit:4;stroke-dasharray:none;stroke-dashoffset:0;stroke-opacity:1"/><circle cx="40" cy="33" r="1" style="opacity:.98999999;vector-effect:none;fill:#fff;fill-opacity:1;stroke:none;stroke-width:2;stroke-linecap:butt;stroke-linejoin:miter;stroke-miterlimit:4;stroke-dasharray:none;stroke-dashoffset:0;stroke-opacity:1"/></g><path d="m18 37 1 1h13v-1z" style="opacity:.98999999;vector-effect:none;fill:#fff;fill-opacity:1;stroke:none;stroke-width:1.99999988;stroke-linecap:butt;stroke-linejoin:miter;stroke-miterlimit:4;stroke-dasharray:none;stroke-dashoffset:0;stroke-opacity:1"/></svg>

<?xml version="1.0" encoding="UTF-8" standalone="no"?>
<!-- Generator: Adobe Illustrator 16.0.0, SVG Export Plug-In . SVG Version: 6.00 Build 0)  -->

<svg
   xmlns:dc="http://purl.org/dc/elements/1.1/"
   xmlns:cc="http://creativecommons.org/ns#"
   xmlns:rdf="http://www.w3.org/1999/02/22-rdf-syntax-ns#"
   xmlns:svg="http://www.w3.org/2000/svg"
   xmlns="http://www.w3.org/2000/svg"
   xmlns:sodipodi="http://sodipodi.sourceforge.net/DTD/sodipodi-0.dtd"
   xmlns:inkscape="http://www.inkscape.org/namespaces/inkscape"
   version="1.1"
   id="Calque_1"
   x="0px"
   y="0px"
   width="64px"
   height="64px"
   viewBox="0 0 64 64"
   enable-background="new 0 0 64 64"
   xml:space="preserve"
   inkscape:version="0.92.3 (2405546, 2018-03-11)"
   sodipodi:docname="menu_osd.svg"
   inkscape:export-filename="/media/familia/DATOS/ultimos/png/ik91"
   inkscape:export-xdpi="360"
   inkscape:export-ydpi="360"><metadata
     id="metadata8"><rdf:RDF><cc:Work
         rdf:about=""><dc:format>image/svg+xml</dc:format><dc:type
           rdf:resource="http://purl.org/dc/dcmitype/StillImage" /><dc:title /></cc:Work></rdf:RDF></metadata><defs
     id="defs6" /><sodipodi:namedview
     pagecolor="#808080"
     bordercolor="#666666"
     borderopacity="1"
     objecttolerance="10"
     gridtolerance="10"
     guidetolerance="10"
     inkscape:pageopacity="0"
     inkscape:pageshadow="2"
     inkscape:window-width="1024"
     inkscape:window-height="705"
     id="namedview4"
     showgrid="true"
     inkscape:zoom="7.375"
     inkscape:cx="28.851861"
     inkscape:cy="53.659899"
     inkscape:window-x="-8"
     inkscape:window-y="-8"
     inkscape:window-maximized="1"
     inkscape:current-layer="Calque_1"
     inkscape:snap-bbox="false"
     inkscape:snap-midpoints="true"
     inkscape:snap-smooth-nodes="true"
     inkscape:object-nodes="true"
     inkscape:snap-intersection-paths="true"
     inkscape:object-paths="true"><inkscape:grid
       type="xygrid"
       id="grid2985"
       empspacing="4"
       visible="true"
       enabled="true"
       snapvisiblegridlinesonly="true" /></sodipodi:namedview><path
     style="fill:#ffffff;fill-opacity:1;stroke:none"
     d="M 15 15 C 13.892 15 13 15.892 13 17 L 13 39 C 13 40.108 13.892 41 15 41 L 49 41 C 50.108 41 51 40.108 51 39 L 51 17 C 51 15.892 50.108 15 49 15 L 15 15 z M 20 17 L 44 17 C 44.554 17 45 17.446 45 18 L 47 20 L 44 22 L 47 24 L 44 26 L 47 28 L 44 30 L 47 32 L 44 34 L 47 36 L 45 38 C 44.608263 38.391737 44.554 39 44 39 L 20 39 C 19.446 39 19 38.554 19 38 L 16 38 L 16 37 L 18 37 L 17 36 L 20 34 L 17 32 L 20 30 L 17 28 L 20 26 L 17 24 L 20 22 L 17 20 L 19 18 C 19.391737 17.608263 19.446 17 20 17 z "
     id="rect4007" /><rect
     style="color:#000000;clip-rule:nonzero;display:inline;overflow:visible;visibility:visible;opacity:1;isolation:auto;mix-blend-mode:normal;color-interpolation:sRGB;color-interpolation-filters:linearRGB;solid-color:#000000;solid-opacity:1;fill:#ffffff;fill-opacity:1;fill-rule:nonzero;stroke:#ffffff;stroke-width:2;stroke-linecap:butt;stroke-linejoin:miter;stroke-miterlimit:4;stroke-dasharray:none;stroke-dashoffset:0;stroke-opacity:1;color-rendering:auto;image-rendering:auto;shape-rendering:auto;text-rendering:auto;enable-background:accumulate"
     id="rect3335"
     width="16"
     height="1"
     x="24"
     y="44"
     ry="0.5" /><rect
     style="color:#000000;clip-rule:nonzero;display:inline;overflow:visible;visibility:visible;opacity:1;isolation:auto;mix-blend-mode:normal;color-interpolation:sRGB;color-interpolation-filters:linearRGB;solid-color:#000000;solid-opacity:1;fill:#ffffff;fill-opacity:1;fill-rule:nonzero;stroke:#ffffff;stroke-width:2;stroke-linecap:butt;stroke-linejoin:miter;stroke-miterlimit:4;stroke-dasharray:none;stroke-dashoffset:0;stroke-opacity:1;color-rendering:auto;image-rendering:auto;shape-rendering:auto;text-rendering:auto;enable-background:accumulate"
     id="rect4139"
     width="2"
     height="2"
     x="31"
     y="41"
     ry="0" /><rect
     style="opacity:0.98999999;vector-effect:none;fill:#ffffff;fill-opacity:1;stroke:none;stroke-width:2;stroke-linecap:butt;stroke-linejoin:miter;stroke-miterlimit:4;stroke-dasharray:none;stroke-dashoffset:0;stroke-opacity:1"
     id="rect841"
     width="6"
     height="2"
     x="21"
     y="31" /><rect
     y="-25"
     x="29"
     height="2"
     width="6"
     id="rect843"
     style="opacity:0.98999999;vector-effect:none;fill:#ffffff;fill-opacity:1;stroke:none;stroke-width:2;stroke-linecap:butt;stroke-linejoin:miter;stroke-miterlimit:4;stroke-dasharray:none;stroke-dashoffset:0;stroke-opacity:1"
     transform="rotate(90)" /><rect
     style="opacity:0.98999999;vector-effect:none;fill:#ffffff;fill-opacity:1;stroke:none;stroke-width:2;stroke-linecap:butt;stroke-linejoin:miter;stroke-miterlimit:4;stroke-dasharray:none;stroke-dashoffset:0;stroke-opacity:1"
     id="rect845"
     width="2"
     height="1"
     x="29"
     y="34" /><rect
     style="opacity:0.98999999;vector-effect:none;fill:#ffffff;fill-opacity:1;stroke:none;stroke-width:2;stroke-linecap:butt;stroke-linejoin:miter;stroke-miterlimit:4;stroke-dasharray:none;stroke-dashoffset:0;stroke-opacity:1"
     id="rect847"
     width="2"
     height="1"
     x="33"
     y="34" /><g
     id="g855"
     transform="translate(0,-3)"
     style="fill:#ffffff"><circle
       r="1"
       cy="37"
       cx="40"
       id="path849"
       style="opacity:0.98999999;vector-effect:none;fill:#ffffff;fill-opacity:1;stroke:none;stroke-width:2;stroke-linecap:butt;stroke-linejoin:miter;stroke-miterlimit:4;stroke-dasharray:none;stroke-dashoffset:0;stroke-opacity:1" /><circle
       style="opacity:0.98999999;vector-effect:none;fill:#ffffff;fill-opacity:1;stroke:none;stroke-width:2;stroke-linecap:butt;stroke-linejoin:miter;stroke-miterlimit:4;stroke-dasharray:none;stroke-dashoffset:0;stroke-opacity:1"
       id="circle851"
       cx="40"
       cy="33"
       r="1" /></g><g
     id="g861"
     transform="rotate(90,41.5,33.5)"
     style="fill:#ffffff"><circle
       style="opacity:0.98999999;vector-effect:none;fill:#ffffff;fill-opacity:1;stroke:none;stroke-width:2;stroke-linecap:butt;stroke-linejoin:miter;stroke-miterlimit:4;stroke-dasharray:none;stroke-dashoffset:0;stroke-opacity:1"
       id="circle857"
       cx="40"
       cy="37"
       r="1" /><circle
       r="1"
       cy="33"
       cx="40"
       id="circle859"
       style="opacity:0.98999999;vector-effect:none;fill:#ffffff;fill-opacity:1;stroke:none;stroke-width:2;stroke-linecap:butt;stroke-linejoin:miter;stroke-miterlimit:4;stroke-dasharray:none;stroke-dashoffset:0;stroke-opacity:1" /></g><path
     style="opacity:0.98999999;vector-effect:none;fill:#ffffff;fill-opacity:1;stroke:none;stroke-width:1.99999988;stroke-linecap:butt;stroke-linejoin:miter;stroke-miterlimit:4;stroke-dasharray:none;stroke-dashoffset:0;stroke-opacity:1"
     d="M 18 37 L 19 38 L 32 38 L 32 37 L 18 37 z "
     id="rect828" /></svg>
